X:1
T:Serenade (Ständchen)
C:Franz Schubert
M:3/4
L:1/8
Q:1/4=80
K:Dm
A3 F E D | C2 D2 C2 | D4 A2 | A6 |
A3 B A G | F3 G A2 | G2 F2 E2 | D6 |
z2 A4 | F3 G A2 | G2 F2 E2 | D6 |]
